X: 28437
T: Mullingar Lea, The
R: reel
M: 4/4
K: Gmixolydian
BG (3GGG GFDE|(3FFF AF CFAF|BG (3GGG GFDE|FAdc BGGA|
BG (3GGG GFDE|(3FFF AF CFAF|BG (3GGG DEFE|FAdc BG G2||
(3ggg gd Bcde|(3fff fc ABcd|(3ggg gd BcdB|dgga bgg^f|
(3ggg gd Bcde|(3fff fc ABcd|ed (3ddd DEFE|FAdc BG G2||

